Newaita-dark/apps/48/ettercap.svg

<svg height="48pt" viewBox="0 0 48 48" width="48pt" xmlns="http://www.w3.org/2000/svg" xmlns:xlink="http://www.w3.org/1999/xlink"><linearGradient id="a" gradientUnits="userSpaceOnUse" x1="23.81478" x2="23.81478" y1="34.1126475" y2="36.09721350005"><stop offset="0" stop-opacity=".27451"/><stop offset="1" stop-opacity="0"/></linearGradient><linearGradient id="b"><stop offset="0" stop-opacity=".313725"/><stop offset=".222222" stop-opacity=".27451"/><stop offset="1" stop-opacity="0"/></linearGradient><radialGradient id="c" cx="450.908936" cy="189.579361" gradientTransform="matrix(.00000026 -.117199 -.210958 -.00000015 69.265436 87.454742)" gradientUnits="userSpaceOnUse" r="21.166656" xlink:href="#b"/><radialGradient id="d" cx="450.908936" cy="189.579361" gradientTransform="matrix(-.00000026 .117199 .210958 .00000015 -21.63588 -19.229477)" gradientUnits="userSpaceOnUse" r="21.166656" xlink:href="#b"/><radialGradient id="e" cx="450.908936" cy="189.579361" gradientTransform="matrix(-.00000026 -.117199 .210958 -.00000015 -21.63588 87.454742)" gradientUnits="userSpaceOnUse" r="21.166656" xlink:href="#b"/><radialGradient id="f" cx="450.908936" cy="189.579361" gradientTransform="matrix(.00000026 .117199 -.210958 .00000015 69.265433 -19.229476)" gradientUnits="userSpaceOnUse" r="21.166656" xlink:href="#b"/><linearGradient id="g"><stop offset="0" stop-color="#424242"/><stop offset="1" stop-color="#616161"/></linearGradient><linearGradient id="h" gradientUnits="userSpaceOnUse" x1="328.083344" x2="328.083344" xlink:href="#g" y1="-41.666668" y2="-73.416664"/><linearGradient id="i"><stop offset="0" stop-color="#aed581"/><stop offset="1" stop-color="#c5e1a5"/></linearGradient><linearGradient id="j" gradientUnits="userSpaceOnUse" x1="23.814786" x2="23.814786" xlink:href="#i" y1="34.11263899995" y2="14.26698462501"/><linearGradient id="k" gradientUnits="userSpaceOnUse" x1="328.083344" x2="328.083344" xlink:href="#g" y1="-68.124985" y2="-168.666657"/><linearGradient id="l" gradientUnits="userSpaceOnUse" x1="23.814816" x2="23.814816" xlink:href="#g" y1="34.11269380616" y2="30.14355780616"/><linearGradient id="m"><stop offset="0" stop-color="#689f38"/><stop offset="1" stop-color="#7cb342"/></linearGradient><linearGradient id="n" gradientUnits="userSpaceOnUse" x1="182.562495" x2="182.562495" xlink:href="#m" y1="132.958328" y2="117.083344"/><linearGradient id="o" gradientUnits="userSpaceOnUse" x1="256.645836" x2="256.645836" xlink:href="#m" y1="132.958328" y2="117.083344"/><linearGradient id="p" gradientUnits="userSpaceOnUse" x1="330.729172" x2="330.729172" xlink:href="#m" y1="132.958328" y2="117.083344"/><linearGradient id="q" gradientUnits="userSpaceOnUse" x1="23.814786" x2="23.814786" xlink:href="#i" y1="17.24383168749" y2="27.16665925"/><path d="m17.859375 34.113281h11.910156v1.984375h-11.910156zm0 0" fill="url(#a)"/><path d="m29.769531 34.113281h3.96875v-1.984375h-3.96875zm0 0" fill="url(#c)"/><path d="m17.859375 34.113281h-3.96875v1.984375h3.96875zm0 0" fill="url(#d)"/><path d="m17.859375 34.113281h-3.96875v-1.984375h3.96875zm0 0" fill="url(#e)"/><path d="m29.769531 34.113281h3.96875v1.984375h-3.96875zm0 0" fill="url(#f)"/><g stroke="#212121" stroke-linecap="round" stroke-width="3" transform="matrix(.093759 0 0 .093759 0 20.158175)"><path d="m169.317164 122.384448c-11.207263 48.370381-67.951844 52.578312-105.823227 111.114389 0-47.620452 103.240141-133.903879 105.823227-111.114389zm0 0" fill="#424242"/><path d="m158.734842 21.852382c0 31.746968-74.07626 21.164645-126.987874 42.329291 42.329291-42.329291 126.987874-52.911614 126.987874-42.329291zm0 0" fill="#424242"/><path d="m338.675991 122.384448c11.207263 48.370381 67.951845 52.578312 105.823228 111.114389 0-47.620452-103.240141-133.903879-105.823228-111.114389zm0 0" fill="#424242"/><path d="m169.317164-20.518572c-11.207263-48.370381-67.951844-31.413667-105.823227-89.949744 0 47.620453 103.240141 112.739234 105.823227 89.949744zm0 0" fill="#424242"/><path d="m338.675991-20.518572c11.207263-48.370381 67.951845-31.413667 105.823228-89.949744 0 47.620453-103.240141 112.739234-105.823228 89.949744zm0 0" fill="#424242"/><path d="m349.258314 21.852382c0 31.746968 74.07626 21.164645 126.987873 42.329291-42.329291-42.329291-126.987873-52.911614-126.987873-42.329291zm0 0" fill="#424242"/><path d="m317.511346-73.430186h21.164645c5.832777 0 10.582323 4.749547 10.582323 10.582323v10.582323c0 5.874439-4.749546 10.582322-10.582323 10.582322h-21.164645c-5.874439 0-10.582323-4.707883-10.582323-10.582322v-10.582323c0-5.832776 4.707884-10.582323 10.582323-10.582323zm0 0" fill="url(#h)"/></g><path d="m13.890625 14.265625h19.847656c1.105469.046875 2.152344.964844 1.984375 1.984375l-1.984375 15.878906c-.054687 1.132813-.976562 1.96875-1.984375 1.984375h-15.878906c-1.132812-.054687-1.96875-.976562-1.984375-1.984375l-1.984375-15.878906c-.109375-1.183594.988281-1.96875 1.984375-1.984375zm0 0" fill="url(#j)"/><path d="m328.093669-168.671091c2.916388 0 5.291161 2.374773 5.291161 5.291162v89.949743c0 2.916388-2.374773 5.291161-5.291161 5.291161-2.916389 0-5.291162-2.374773-5.291162-5.291161v-89.949743c0-2.916389 2.374773-5.291162 5.291162-5.291162zm0 0" fill="url(#k)" stroke="#212121" stroke-linecap="round" stroke-width="3" transform="matrix(.093759 0 0 .093759 0 20.158175)"/><path d="m13.644531 30.144531.246094 1.984375c.015625 1.007813.851563 1.929688 1.984375 1.984375h15.878906c1.007813-.015625 1.929688-.851562 1.984375-1.984375l.246094-1.984375zm0 0" fill="url(#l)"/><path d="m179.899487 117.093287c4.416245 0 7.957574 3.458003 7.957574 7.707597v.45829c0 4.249594-3.541329 7.707597-7.957574 7.707597-4.374582 0-7.915911-3.458003-7.915911-7.707597v-.45829c0-4.249594 3.541329-7.707597 7.915911-7.707597zm0 0" fill="url(#n)" stroke="#212121" stroke-linecap="round" stroke-width="3" transform="matrix(.093759 0 0 .093759 0 20.158175)"/><path d="m254.017409 117.093287c4.374582 0 7.915911 3.458003 7.915911 7.707597v.45829c0 4.249594-3.541329 7.707597-7.915911 7.707597-4.416245 0-7.957573-3.458003-7.957573-7.707597v-.45829c0-4.249594 3.541328-7.707597 7.957573-7.707597zm0 0" fill="url(#o)" stroke="#212121" stroke-linecap="round" stroke-width="3" transform="matrix(.093759 0 0 .093759 0 20.158175)"/><path d="m328.093669 117.093287c4.374582 0 7.91591 3.458003 7.91591 7.707597v.45829c0 4.249594-3.541328 7.707597-7.91591 7.707597-4.374583 0-7.957574-3.458003-7.957574-7.707597v-.45829c0-4.249594 3.582991-7.707597 7.957574-7.707597zm0 0" fill="url(#p)" stroke="#212121" stroke-linecap="round" stroke-width="3" transform="matrix(.093759 0 0 .093759 0 20.158175)"/><path d="m13.890625 14.265625c-.996094.015625-2.09375.800781-1.984375 1.984375l.011719.085938c.140625-.953126 1.097656-1.558594 1.972656-1.574219h19.847656c.933594.042969 1.828125.703125 1.980469 1.523437l.003906-.035156c.167969-1.019531-.878906-1.9375-1.984375-1.984375zm0 0" fill="#fff" fill-opacity=".392157"/><path d="m35.71875 15.789062-1.980469 15.84375c-.054687 1.132813-.976562 1.96875-1.984375 1.984376h-15.878906c-1.132812-.054688-1.96875-.976563-1.984375-1.984376l-1.972656-15.792968c-.019531.128906-.023438.269531-.011719.410156l1.984375 15.878906c.015625 1.007813.851563 1.929688 1.984375 1.984375h15.878906c1.007813-.015625 1.929688-.851562 1.984375-1.984375l1.984375-15.878906c.027344-.15625.023438-.308594-.003906-.460938zm0 0" fill-opacity=".235294"/><path d="m13.890625 14.125c-.535156.007812-1.089844.21875-1.5.589844-.414063.371094-.683594.910156-.625 1.550781l1.988281 15.878906-.003906-.015625c.019531 1.085938.910156 2.066406 2.121094 2.125h15.882812c1.085938-.015625 2.066406-.910156 2.125-2.117187v.007812l1.980469-15.871093c.09375-.5625-.148437-1.09375-.554687-1.480469s-.972657-.640625-1.5625-.667969zm.003906.28125h19.835938c.515625.023438 1.027343.25 1.378906.589844.355469.339844.550781.777344.472656 1.234375l-1.984375 15.886719v.003906c-.050781 1.0625-.914062 1.835937-1.847656 1.851562h-15.867188c-1.0625-.050781-1.835937-.914062-1.851562-1.847656v-.007812l-1.984375-15.878907c-.050781-.546875.171875-.992187.53125-1.3125.355469-.324219.851563-.511719 1.316406-.519531zm0 0" fill="#212121"/><path d="m17.613281 17.242188c-.414062 0-.746093.324218-.746093.726562v7.214844h13.894531v-7.214844c0-.402344-.332031-.726562-.746094-.726562zm0 0" fill="url(#q)"/><path d="m17.613281 17.101562c-.484375 0-.886719.386719-.886719.867188v7.214844h.28125v-7.214844c0-.324219.265626-.585938.605469-.585938h12.402344c.339844 0 .605469.261719.605469.585938v7.214844h.28125v-7.214844c0-.480469-.398438-.867188-.886719-.867188zm0 0" fill="#212121"/></svg>

<?xml version="1.0" encoding="UTF-8"?>
<svg xmlns="http://www.w3.org/2000/svg" xmlns:xlink="http://www.w3.org/1999/xlink" width="48pt" height="48pt" viewBox="0 0 48 48" version="1.1">
<defs>
<linearGradient id="linear0" gradientUnits="userSpaceOnUse" x1="254" y1="233.5" x2="254" y2="254.666672" gradientTransform="matrix(0.093759,0,0,0.093759,-0.00000572259,12.219921)">
<stop offset="0" style="stop-color:rgb(0%,0%,0%);stop-opacity:0.27451;"/>
<stop offset="1" style="stop-color:rgb(0%,0%,0%);stop-opacity:0;"/>
</linearGradient>
<radialGradient id="radial0" gradientUnits="userSpaceOnUse" cx="450.908936" cy="189.579361" fx="450.908936" fy="189.579361" r="21.166656" gradientTransform="matrix(0.000000261256,-0.117199,-0.210958,-0.000000152308,69.265436,87.454742)">
<stop offset="0" style="stop-color:rgb(0%,0%,0%);stop-opacity:0.313725;"/>
<stop offset="0.222222" style="stop-color:rgb(0%,0%,0%);stop-opacity:0.27451;"/>
<stop offset="1" style="stop-color:rgb(0%,0%,0%);stop-opacity:0;"/>
</radialGradient>
<radialGradient id="radial1" gradientUnits="userSpaceOnUse" cx="450.908936" cy="189.579361" fx="450.908936" fy="189.579361" r="21.166656" gradientTransform="matrix(-0.000000261256,0.117199,0.210958,0.000000152308,-21.63588,-19.229477)">
<stop offset="0" style="stop-color:rgb(0%,0%,0%);stop-opacity:0.313725;"/>
<stop offset="0.222222" style="stop-color:rgb(0%,0%,0%);stop-opacity:0.27451;"/>
<stop offset="1" style="stop-color:rgb(0%,0%,0%);stop-opacity:0;"/>
</radialGradient>
<radialGradient id="radial2" gradientUnits="userSpaceOnUse" cx="450.908936" cy="189.579361" fx="450.908936" fy="189.579361" r="21.166656" gradientTransform="matrix(-0.000000261256,-0.117199,0.210958,-0.000000152308,-21.63588,87.454742)">
<stop offset="0" style="stop-color:rgb(0%,0%,0%);stop-opacity:0.313725;"/>
<stop offset="0.222222" style="stop-color:rgb(0%,0%,0%);stop-opacity:0.27451;"/>
<stop offset="1" style="stop-color:rgb(0%,0%,0%);stop-opacity:0;"/>
</radialGradient>
<radialGradient id="radial3" gradientUnits="userSpaceOnUse" cx="450.908936" cy="189.579361" fx="450.908936" fy="189.579361" r="21.166656" gradientTransform="matrix(0.000000261256,0.117199,-0.210958,0.000000152308,69.265433,-19.229476)">
<stop offset="0" style="stop-color:rgb(0%,0%,0%);stop-opacity:0.313725;"/>
<stop offset="0.222222" style="stop-color:rgb(0%,0%,0%);stop-opacity:0.27451;"/>
<stop offset="1" style="stop-color:rgb(0%,0%,0%);stop-opacity:0;"/>
</radialGradient>
<linearGradient id="linear1" gradientUnits="userSpaceOnUse" x1="328.083344" y1="-41.666668" x2="328.083344" y2="-73.416664" gradientTransform="matrix(1,0,0,1,0,0)">
<stop offset="0" style="stop-color:rgb(25.882353%,25.882353%,25.882353%);stop-opacity:1;"/>
<stop offset="1" style="stop-color:rgb(38.039216%,38.039216%,38.039216%);stop-opacity:1;"/>
</linearGradient>
<linearGradient id="linear2" gradientUnits="userSpaceOnUse" x1="254" y1="148.833328" x2="254" y2="-62.833332" gradientTransform="matrix(0.093759,0,0,0.093759,0,20.158175)">
<stop offset="0" style="stop-color:rgb(68.235294%,83.529412%,50.588235%);stop-opacity:1;"/>
<stop offset="1" style="stop-color:rgb(77.254902%,88.235294%,64.705882%);stop-opacity:1;"/>
</linearGradient>
<linearGradient id="linear3" gradientUnits="userSpaceOnUse" x1="328.083344" y1="-68.125" x2="328.083344" y2="-168.666672" gradientTransform="matrix(1,0,0,1,0,0.0000152588)">
<stop offset="0" style="stop-color:rgb(25.882353%,25.882353%,25.882353%);stop-opacity:1;"/>
<stop offset="1" style="stop-color:rgb(38.039216%,38.039216%,38.039216%);stop-opacity:1;"/>
</linearGradient>
<linearGradient id="linear4" gradientUnits="userSpaceOnUse" x1="960" y1="1375.118164" x2="960" y2="1215.118164" gradientTransform="matrix(0.0248071,0,0,0.0248071,0,0)">
<stop offset="0" style="stop-color:rgb(25.882353%,25.882353%,25.882353%);stop-opacity:1;"/>
<stop offset="1" style="stop-color:rgb(38.039216%,38.039216%,38.039216%);stop-opacity:1;"/>
</linearGradient>
<linearGradient id="linear5" gradientUnits="userSpaceOnUse" x1="185.208328" y1="132.958328" x2="185.208328" y2="117.083344" gradientTransform="matrix(1,0,0,1,-2.645833,0)">
<stop offset="0" style="stop-color:rgb(40.784314%,62.352941%,21.960784%);stop-opacity:1;"/>
<stop offset="1" style="stop-color:rgb(48.627451%,70.196078%,25.882353%);stop-opacity:1;"/>
</linearGradient>
<linearGradient id="linear6" gradientUnits="userSpaceOnUse" x1="185.208328" y1="132.958328" x2="185.208328" y2="117.083344" gradientTransform="matrix(1,0,0,1,71.437508,0)">
<stop offset="0" style="stop-color:rgb(40.784314%,62.352941%,21.960784%);stop-opacity:1;"/>
<stop offset="1" style="stop-color:rgb(48.627451%,70.196078%,25.882353%);stop-opacity:1;"/>
</linearGradient>
<linearGradient id="linear7" gradientUnits="userSpaceOnUse" x1="185.208328" y1="132.958328" x2="185.208328" y2="117.083344" gradientTransform="matrix(1,0,0,1,145.520844,0)">
<stop offset="0" style="stop-color:rgb(40.784314%,62.352941%,21.960784%);stop-opacity:1;"/>
<stop offset="1" style="stop-color:rgb(48.627451%,70.196078%,25.882353%);stop-opacity:1;"/>
</linearGradient>
<linearGradient id="linear8" gradientUnits="userSpaceOnUse" x1="254" y1="-31.083334" x2="254" y2="74.75" gradientTransform="matrix(0.093759,0,0,0.093759,0,20.158174)">
<stop offset="0" style="stop-color:rgb(68.235294%,83.529412%,50.588235%);stop-opacity:1;"/>
<stop offset="1" style="stop-color:rgb(77.254902%,88.235294%,64.705882%);stop-opacity:1;"/>
</linearGradient>
</defs>
<g id="surface1">
<path style=" stroke:none;fill-rule:nonzero;fill:url(#linear0);" d="M 17.859375 34.113281 L 29.769531 34.113281 L 29.769531 36.097656 L 17.859375 36.097656 Z M 17.859375 34.113281 "/>
<path style=" stroke:none;fill-rule:nonzero;fill:url(#radial0);" d="M 29.769531 34.113281 L 33.738281 34.113281 L 33.738281 32.128906 L 29.769531 32.128906 Z M 29.769531 34.113281 "/>
<path style=" stroke:none;fill-rule:nonzero;fill:url(#radial1);" d="M 17.859375 34.113281 L 13.890625 34.113281 L 13.890625 36.097656 L 17.859375 36.097656 Z M 17.859375 34.113281 "/>
<path style=" stroke:none;fill-rule:nonzero;fill:url(#radial2);" d="M 17.859375 34.113281 L 13.890625 34.113281 L 13.890625 32.128906 L 17.859375 32.128906 Z M 17.859375 34.113281 "/>
<path style=" stroke:none;fill-rule:nonzero;fill:url(#radial3);" d="M 29.769531 34.113281 L 33.738281 34.113281 L 33.738281 36.097656 L 29.769531 36.097656 Z M 29.769531 34.113281 "/>
<path style="fill-rule:nonzero;fill:rgb(25.882354%,25.882354%,25.882354%);fill-opacity:1;stroke-width:3;stroke-linecap:round;stroke-linejoin:miter;stroke:rgb(12.941177%,12.941177%,12.941177%);stroke-opacity:1;stroke-miterlimit:4;" d="M 169.317164 122.384448 C 158.109901 170.754829 101.36532 174.96276 63.493937 233.498837 C 63.493937 185.878385 166.734078 99.594958 169.317164 122.384448 Z M 169.317164 122.384448 " transform="matrix(0.093759,0,0,0.093759,0,20.158175)"/>
<path style="fill-rule:nonzero;fill:rgb(25.882354%,25.882354%,25.882354%);fill-opacity:1;stroke-width:3;stroke-linecap:round;stroke-linejoin:miter;stroke:rgb(12.941177%,12.941177%,12.941177%);stroke-opacity:1;stroke-miterlimit:4;" d="M 158.734842 21.852382 C 158.734842 53.59935 84.658582 43.017027 31.746968 64.181673 C 74.076259 21.852382 158.734842 11.270059 158.734842 21.852382 Z M 158.734842 21.852382 " transform="matrix(0.093759,0,0,0.093759,0,20.158175)"/>
<path style="fill-rule:nonzero;fill:rgb(25.882354%,25.882354%,25.882354%);fill-opacity:1;stroke-width:3;stroke-linecap:round;stroke-linejoin:miter;stroke:rgb(12.941177%,12.941177%,12.941177%);stroke-opacity:1;stroke-miterlimit:4;" d="M 338.675991 122.384448 C 349.883254 170.754829 406.627836 174.96276 444.499219 233.498837 C 444.499219 185.878385 341.259078 99.594958 338.675991 122.384448 Z M 338.675991 122.384448 " transform="matrix(0.093759,0,0,0.093759,0,20.158175)"/>
<path style="fill-rule:nonzero;fill:rgb(25.882354%,25.882354%,25.882354%);fill-opacity:1;stroke-width:3;stroke-linecap:round;stroke-linejoin:miter;stroke:rgb(12.941177%,12.941177%,12.941177%);stroke-opacity:1;stroke-miterlimit:4;" d="M 169.317164 -20.518572 C 158.109901 -68.888953 101.36532 -51.932239 63.493937 -110.468316 C 63.493937 -62.847863 166.734078 2.270918 169.317164 -20.518572 Z M 169.317164 -20.518572 " transform="matrix(0.093759,0,0,0.093759,0,20.158175)"/>
<path style="fill-rule:nonzero;fill:rgb(25.882354%,25.882354%,25.882354%);fill-opacity:1;stroke-width:3;stroke-linecap:round;stroke-linejoin:miter;stroke:rgb(12.941177%,12.941177%,12.941177%);stroke-opacity:1;stroke-miterlimit:4;" d="M 338.675991 -20.518572 C 349.883254 -68.888953 406.627836 -51.932239 444.499219 -110.468316 C 444.499219 -62.847863 341.259078 2.270918 338.675991 -20.518572 Z M 338.675991 -20.518572 " transform="matrix(0.093759,0,0,0.093759,0,20.158175)"/>
<path style="fill-rule:nonzero;fill:rgb(25.882354%,25.882354%,25.882354%);fill-opacity:1;stroke-width:3;stroke-linecap:round;stroke-linejoin:miter;stroke:rgb(12.941177%,12.941177%,12.941177%);stroke-opacity:1;stroke-miterlimit:4;" d="M 349.258314 21.852382 C 349.258314 53.59935 423.334574 43.017027 476.246187 64.181673 C 433.916896 21.852382 349.258314 11.270059 349.258314 21.852382 Z M 349.258314 21.852382 " transform="matrix(0.093759,0,0,0.093759,0,20.158175)"/>
<path style="fill-rule:nonzero;fill:url(#linear1);stroke-width:3;stroke-linecap:round;stroke-linejoin:miter;stroke:rgb(12.941177%,12.941177%,12.941177%);stroke-opacity:1;stroke-miterlimit:4;" d="M 317.511346 -73.430186 L 338.675991 -73.430186 C 344.508768 -73.430186 349.258314 -68.680639 349.258314 -62.847863 L 349.258314 -52.26554 C 349.258314 -46.391101 344.508768 -41.683218 338.675991 -41.683218 L 317.511346 -41.683218 C 311.636907 -41.683218 306.929023 -46.391101 306.929023 -52.26554 L 306.929023 -62.847863 C 306.929023 -68.680639 311.636907 -73.430186 317.511346 -73.430186 Z M 317.511346 -73.430186 " transform="matrix(0.093759,0,0,0.093759,0,20.158175)"/>
<path style=" stroke:none;fill-rule:nonzero;fill:url(#linear2);" d="M 13.890625 14.265625 L 33.738281 14.265625 C 34.84375 14.3125 35.890625 15.230469 35.722656 16.25 L 33.738281 32.128906 C 33.683594 33.261719 32.761719 34.097656 31.753906 34.113281 L 15.875 34.113281 C 14.742188 34.058594 13.90625 33.136719 13.890625 32.128906 L 11.90625 16.25 C 11.796875 15.066406 12.894531 14.28125 13.890625 14.265625 Z M 13.890625 14.265625 "/>
<path style="fill-rule:nonzero;fill:url(#linear3);stroke-width:3;stroke-linecap:round;stroke-linejoin:miter;stroke:rgb(12.941177%,12.941177%,12.941177%);stroke-opacity:1;stroke-miterlimit:4;" d="M 328.093669 -168.671091 C 331.010057 -168.671091 333.38483 -166.296318 333.38483 -163.379929 L 333.38483 -73.430186 C 333.38483 -70.513798 331.010057 -68.139025 328.093669 -68.139025 C 325.17728 -68.139025 322.802507 -70.513798 322.802507 -73.430186 L 322.802507 -163.379929 C 322.802507 -166.296318 325.17728 -168.671091 328.093669 -168.671091 Z M 328.093669 -168.671091 " transform="matrix(0.093759,0,0,0.093759,0,20.158175)"/>
<path style=" stroke:none;fill-rule:nonzero;fill:url(#linear4);" d="M 13.644531 30.144531 L 13.890625 32.128906 C 13.90625 33.136719 14.742188 34.058594 15.875 34.113281 L 31.753906 34.113281 C 32.761719 34.097656 33.683594 33.261719 33.738281 32.128906 L 33.984375 30.144531 Z M 13.644531 30.144531 "/>
<path style="fill-rule:nonzero;fill:url(#linear5);stroke-width:3;stroke-linecap:round;stroke-linejoin:miter;stroke:rgb(12.941177%,12.941177%,12.941177%);stroke-opacity:1;stroke-miterlimit:4;" d="M 179.899487 117.093287 C 184.315732 117.093287 187.857061 120.55129 187.857061 124.800884 L 187.857061 125.259174 C 187.857061 129.508768 184.315732 132.966771 179.899487 132.966771 C 175.524905 132.966771 171.983576 129.508768 171.983576 125.259174 L 171.983576 124.800884 C 171.983576 120.55129 175.524905 117.093287 179.899487 117.093287 Z M 179.899487 117.093287 " transform="matrix(0.093759,0,0,0.093759,0,20.158175)"/>
<path style="fill-rule:nonzero;fill:url(#linear6);stroke-width:3;stroke-linecap:round;stroke-linejoin:miter;stroke:rgb(12.941177%,12.941177%,12.941177%);stroke-opacity:1;stroke-miterlimit:4;" d="M 254.017409 117.093287 C 258.391991 117.093287 261.93332 120.55129 261.93332 124.800884 L 261.93332 125.259174 C 261.93332 129.508768 258.391991 132.966771 254.017409 132.966771 C 249.601164 132.966771 246.059836 129.508768 246.059836 125.259174 L 246.059836 124.800884 C 246.059836 120.55129 249.601164 117.093287 254.017409 117.093287 Z M 254.017409 117.093287 " transform="matrix(0.093759,0,0,0.093759,0,20.158175)"/>
<path style="fill-rule:nonzero;fill:url(#linear7);stroke-width:3;stroke-linecap:round;stroke-linejoin:miter;stroke:rgb(12.941177%,12.941177%,12.941177%);stroke-opacity:1;stroke-miterlimit:4;" d="M 328.093669 117.093287 C 332.468251 117.093287 336.009579 120.55129 336.009579 124.800884 L 336.009579 125.259174 C 336.009579 129.508768 332.468251 132.966771 328.093669 132.966771 C 323.719086 132.966771 320.136095 129.508768 320.136095 125.259174 L 320.136095 124.800884 C 320.136095 120.55129 323.719086 117.093287 328.093669 117.093287 Z M 328.093669 117.093287 " transform="matrix(0.093759,0,0,0.093759,0,20.158175)"/>
<path style=" stroke:none;fill-rule:nonzero;fill:rgb(100%,100%,100%);fill-opacity:0.392157;" d="M 13.890625 14.265625 C 12.894531 14.28125 11.796875 15.066406 11.90625 16.25 L 11.917969 16.335938 C 12.058594 15.382812 13.015625 14.777344 13.890625 14.761719 L 33.738281 14.761719 C 34.671875 14.804688 35.566406 15.464844 35.71875 16.285156 L 35.722656 16.25 C 35.890625 15.230469 34.84375 14.3125 33.738281 14.265625 Z M 13.890625 14.265625 "/>
<path style=" stroke:none;fill-rule:nonzero;fill:rgb(0%,0%,0%);fill-opacity:0.235294;" d="M 35.71875 15.789062 L 33.738281 31.632812 C 33.683594 32.765625 32.761719 33.601562 31.753906 33.617188 L 15.875 33.617188 C 14.742188 33.5625 13.90625 32.640625 13.890625 31.632812 L 11.917969 15.839844 C 11.898438 15.96875 11.894531 16.109375 11.90625 16.25 L 13.890625 32.128906 C 13.90625 33.136719 14.742188 34.058594 15.875 34.113281 L 31.753906 34.113281 C 32.761719 34.097656 33.683594 33.261719 33.738281 32.128906 L 35.722656 16.25 C 35.75 16.09375 35.746094 15.941406 35.71875 15.789062 Z M 35.71875 15.789062 "/>
<path style=" stroke:none;fill-rule:nonzero;fill:rgb(12.941177%,12.941177%,12.941177%);fill-opacity:1;" d="M 13.890625 14.125 C 13.355469 14.132812 12.800781 14.34375 12.390625 14.714844 C 11.976562 15.085938 11.707031 15.625 11.765625 16.265625 L 13.753906 32.144531 L 13.75 32.128906 C 13.769531 33.214844 14.660156 34.195312 15.871094 34.253906 L 31.753906 34.253906 C 32.839844 34.238281 33.820312 33.34375 33.878906 32.136719 L 33.878906 32.144531 L 35.859375 16.273438 C 35.953125 15.710938 35.710938 15.179688 35.304688 14.792969 C 34.898438 14.40625 34.332031 14.152344 33.742188 14.125 Z M 13.894531 14.40625 L 33.730469 14.40625 C 34.246094 14.429688 34.757812 14.65625 35.109375 14.996094 C 35.464844 15.335938 35.660156 15.773438 35.582031 16.230469 L 33.597656 32.117188 L 33.597656 32.121094 C 33.546875 33.183594 32.683594 33.957031 31.75 33.972656 L 15.882812 33.972656 C 14.820312 33.921875 14.046875 33.058594 14.03125 32.125 L 14.03125 32.117188 L 12.046875 16.238281 C 11.996094 15.691406 12.21875 15.246094 12.578125 14.925781 C 12.933594 14.601562 13.429688 14.414062 13.894531 14.40625 Z M 13.894531 14.40625 "/>
<path style=" stroke:none;fill-rule:nonzero;fill:url(#linear8);" d="M 17.613281 17.242188 C 17.199219 17.242188 16.867188 17.566406 16.867188 17.96875 L 16.867188 25.183594 L 30.761719 25.183594 L 30.761719 17.96875 C 30.761719 17.566406 30.429688 17.242188 30.015625 17.242188 Z M 17.613281 17.242188 "/>
<path style=" stroke:none;fill-rule:nonzero;fill:rgb(12.941177%,12.941177%,12.941177%);fill-opacity:1;" d="M 17.613281 17.101562 C 17.128906 17.101562 16.726562 17.488281 16.726562 17.96875 L 16.726562 25.183594 L 17.007812 25.183594 L 17.007812 17.96875 C 17.007812 17.644531 17.273438 17.382812 17.613281 17.382812 L 30.015625 17.382812 C 30.355469 17.382812 30.621094 17.644531 30.621094 17.96875 L 30.621094 25.183594 L 30.902344 25.183594 L 30.902344 17.96875 C 30.902344 17.488281 30.503906 17.101562 30.015625 17.101562 Z M 17.613281 17.101562 "/>
</g>
</svg>
